X:146a
T:Simple Gifts
O:old Shaker hymn
R:reel
C:R-15
Z:Transcribed to abc by Mary Lou Knack
S:Jim Coon to CoMandoList TOW
M:C|
L:1/8
K:G
D2 D2|"G"G4 G2 A2|B2 G2 B2 c2|d4 d2 c2|!
B4 A2 G2|"D"A4 A4|A4 G4|A2 B2 A2 F2|D4 D4|!
"G"G2 D2 G2 A2|B4 B2 c2|d4 d2 c2|B4 A2 G2|"Am"A4 A2 A2|!
"D"B4 B2 A2|"C"G4 G3A|"G"G8|"G"d8|B6 A2|!
B3c B2 A2|G6 A2|B4 B2 c2|d4 c2 B2|"D"A4 A2 B2|!
A4 D2 D2|"G"G4 G2 A2|B4 B2 c2|d4 d2 c2|B4 A2 G2|!
"Am"A4 A4|"D"B4 B2 A2|"C"G4 G4|"G"G4||
